X:14
T:Ashover simple chords 45
M:3/4
L:1/8
K:D
e[fD,F,A,] dd cd | d[BG,B,D] dd Ac | e[fD,F,A,] dd cd | d[BE,G,B,] ee ed | e[fD,F,A,] dd cd |
d[BG,B,D] dd Ad | d[BE,G,B,] dd cd | e[fD,F,A,] dd d2 | e[fD,F,A,] dd cd |
d[BG,B,D] dd Ac | e[fD,F,A,] dd cd | d[BE,G,B,] ee ed | e[fD,F,A,] dd cd |
d[BG,B,D] dd Ad | d[BE,G,B,] dd cd | e[fD,F,A,] dd d2 | e[fD,F,A,] ef gf |
g[aD,F,A,] ga2< b2 |[e=C,E,G,] de ^e=e | ^e[g=C,=E,G,] fg2< a2 |[fD,F,A,] ef gf |
g[aD,F,A,] ga ba | g[fE,^G,B,] ed cd | e[fD,F,A,] dd2< d2 |[fD,F,A,] ef gf |
g[aD,F,A,] ga2< b2 |[e=C,E,G,] de ^e=e | ^e[g=C,=E,G,] fg2< a2 |[fD,F,A,] ef gf |
g[aD,F,A,] ga ba | g[fE,^G,B,] ed cd | e[fD,F,A,] dd2< d2 |


